X: 41417
T: Twining Branch, The
R: jig
M: 6/8
K: Dmajor
|:FAA BAG|FAd BAG|FAF BAF|AGF EAG|
FAA BAG|FAd BAG|FAF gec|1 edc d2e:|2 edc d2A||
|:BdA GFE|DFA dfa|f3 ged|ce(a a)ge|
fdA GFE|DFA df/g/a|f3 gec|1 edc d2A:|2 edc dcB||
|:ADD BDD|ADD GFE|FAd B/c/dA|FED EFG|
ADD BDD|ADD GFE|FAd B/c/dA|1 GFE DFG:|2 FGE D3||

